X:1
T:Le ioly boys
T:Le ioly boys
T:(Basse dansse 9)
T:Tielman Susato
C:Tielman Susato
%%score 1 2 3 4
L:1/8
M:3/2
K:C
V:1 treble 
V:2 treble 
V:3 treble 
V:4 treble 
V:1
 A4 A4 G4 | A4 E8 | A2 G2 F2 E2 G2 ^F2 | G4 D8 | F4 F4 F4 | F4 F2 G2 A2 G2 | _B2 A2 G2 F2 E2 D2 | %7
 E8 z4 | B,2 A,2 G,2 A,2 B,2 G,2 | A,4 E8 | A2 G2 F2 E2 G2 ^F2 | G4 D8 | F4 F4 F4 | %13
 F2 E2 F2 G2 A2 F2 | G4 E4 D2 ^C2 | D8 z4 :: D4 D4 D4 | D8 z4 | D2 E2 D2 C2 B,2 A,2 | G,8 z4 | %20
 G,4 A,2 G,2 A,2 B,2 | C2 D2 E2 C2 D2 C2 | B,2 A,2 A,4 ^G,4 | A,8 z4 :| %24
V:2
 F,4 F,4 E,4 | A,4 G,8 | A,4 C4 D4 | B,4 B,8 | D4 D4 D4 | D4 A,4 A,4 | A,4 G,8 | G,8 z4 | %8
 D4 D4 G,4 | C4 C8 | C4 C4 D4 | B,4 B,8 | D4 D4 D4 | D6 C2 A,4 | C4 C4 C4 | B,8 z4 :: B,4 B,4 B,4 | %17
 A,8 z4 | B,4 B,4 B,4 | C8 z4 | C4 C4 C4 | A,4 G,2 A,2 B,2 C2 | D4 C4 B,4 | ^C8 z4 :| %24
V:3
 A,4 A,4 B,4 | C4 C8 | C2 _B,2 A,2 G,2 A,4 | G,4 G,8 | A,4 A,4 A,4 | A,4 D4 C4 | %6
 D2 C2 B,2 A,2 B,4 | C8 z4 | G,4 G,4 D,4 | F,4 G,8 | A,4 A,4 A,4 | G,4 G,8 | A,4 A,4 A,4 | %13
 A,6 G,2 F,4 | E,2 F,2 G,4 A,4 | D,8 z4 :: G,4 G,4 G,4 | F,8 z4 | G,4 G,4 G,4 | E,8 z4 | %20
 E,4 F,4 F,4 | F,4 E,4 G,4 | G,4 E,4 ^G,4 | E,8 z4 :| %24
V:4
 D,4 D,4 G,4 | F,4 C,8 | F,4 F,4 D,4 | G,,4 G,,8 | D,4 D,4 D,4 | D,4 D,2 E,2 F,4 | %6
 D,4 E,2 F,2 G,4 | C,8 z4 | G,,4 G,,4 G,,4 | F,,4 C,8 | F,4 F,4 D,4 | G,,4 G,,8 | D,4 D,4 D,4 | %13
 D,8 D,4 | C,4 C,2 B,,2 A,,4 | G,,8 z4 :: G,,4 G,,4 G,,4 | D,8 z4 | G,,4 G,,4 G,,4 | C,8 z4 | %20
 C,4 F,,4 F,,4 | F,,4 C,4 B,,2 A,,2 | G,,4 A,,4 E,,4 | A,,8 z4 :| %24

